X:2172
T:Gaztelugatxeko martxa
O:england
M:6/8
L:1/8
C:Kepa Junkera
S:Bilbao 00:00h, CD1 track 11
R:Jig
N: played AABBAACC etc
K:G
G2G GFE|DED D2D|c2c cBA|Bcd d2d|G2G GFE|DED D2D|c2c cBA|G3 G3:|
def fed|^c2(A A3|A) gg gfe|(f3 f3)|def fed|^c2(A A3)|B3 ^c3|(d3 d3):|
a2a ab(a|a) aa agf|efg gfe|d^cB B2A|a2a ab(a|a) aa agf|efg gfe|(d3 d3):|
